X:1
T:Come and Dine
T:Come and Dine
T:Charles Brenton Widmeyer
T:Charles Brenton Widmeyer, 1907
T:Musi Courtesy of the Cyber Hymnal™
T:Musi Courtesy of the Cyber Hymnal™
C:Charles Brenton Widmeyer
Z:Musi
Z:Courtesy of the Cyber Hymnal™
%%score ( 1 2 ) ( 3 4 )
L:1/8
Q:1/4=105
M:4/4
K:C
V:1 treble 
V:2 treble 
V:3 bass 
V:4 bass 
V:1
 [CE][DF] | [EG]>[FA] [EG][CE] [EG]2 [EG][EG] | [FA]>[GB] [FA][CF] [FA]2 [FA][FA] | %3
w: 1.~Je- sus|has a ta- ble spread Where the|saints of God are fed, He in-|
w: 2.~The di-|sci- ples came to land, Thus o-|bey- ing Christ’s com- mand, For the|
w: 3.~Soon the|Lamb will take His bride To be|ev- er at His side, All the|
 [FB]>[FB] [FB][FA] [FG][FA][DF][B,G] | [CE]6 [CE][DF] | [EG]>[FA] [EG][CE] [EG]2 [EG][EG] | %6
w: vites His chos- en peo- ple, “Come and|dine”; With His|man- na He doth feed And sup-|
w: Mas- ter called un- to them, “Come and|dine”; There they|found their heart’s de- sire, Bread and|
w: host of hea- ven will as- sem- bled|be; O ’twill|be a glor- ious sight, All the|
 [FA]>[GB] [FA][CF] [FA]2 [FA][FA] | [FB]>[FB] [FB][FA] [FG][FG][FA][FB] | [Ec]6 || %9
w: plies our ev- ery need: O ’tis|sweet to sup with Je- sus all the|time!|
w: fish up- on the fire; Thus He|sa- tis- fies the hun- gry ev- ery|time.|
w: saints in spot- less white; And with|Je- sus they will feast e- ter- nal-|ly.|
"^Refrain" [EG][Gc] | [FB]>[FB] [FB][FB] [FB][DF][DF][FA] | G6 [EG][EG] | %12
w: |||
w: “Come and|dine,” the Mas- ter call- eth, “Come and|dine”; You may|
w: |||
 [FA]>[FA] [FA][GA] [^FA][FA][FB][Fc] | d6 [DG][DG] | [Ge]>[Ge] [^Fe][=Fd] [Ec]2 EE | %15
w: |||
w: feast at Je- sus’ ta- ble all the|time; He who|fed the mul- ti- tude, turned the|
w: |||
 [Ec]>[Ec] [Dc][DB] [CA]2 [FA][FA] | [FB]>[FB] [FB][FA] [FG]2 [FB][Fd] | [Ec]6 |] %18
w: |||
w: wa- ter in- to wine, To the|hun- gry call- eth now, “Come and|dine.”|
w: |||
V:2
 x2 | x8 | x8 | x8 | x8 | x8 | x8 | x8 | x6 || x2 | x8 | (E>E^DD E2) x2 | x8 | (F>GBAGF) x2 | %14
 x6 EE | x8 | x8 | x6 |] %18
V:3
 [C,G,][C,G,] | [C,C]>[C,C] [C,C][C,G,] [C,C]2 [C,C][C,C] | %2
w: ~ ~|~ ~ ~ ~ ~ ~ ~|
 [F,C]>[F,C] [F,C][F,A,] [F,C]2 [F,D][F,D] | [G,D]>[G,D] [G,D][G,C] [G,B,][G,B,][G,,G,][G,,G,] | %4
w: ~ ~ ~ ~ ~ ~ ~|~ ~ ~ ~ ~ ~ ~ ~|
 [C,G,]6 [C,G,][C,G,] | [C,C]>[C,C] [C,C][C,G,] [C,C]2 [C,C][C,C] | %6
w: ~ ~ ~|~ ~ ~ ~ ~ ~ ~|
 [F,C]>[F,C] [F,C][F,A,] [F,C]2 [F,D][F,D] | [G,D]>[G,D] [G,D][G,C] [G,B,][G,B,][G,C][G,D] | %8
w: ~ ~ ~ ~ ~ ~ ~|~ ~ ~ ~ ~ ~ ~ ~|
 [C,C]6 || [C,C][E,C] | [G,D]>[G,D] [G,D][G,D] [G,D][G,B,][G,B,][G,B,] | C>G, CA, G,2 [C,C][C,C] | %12
w: ~|~ ~|~ ~ ~ ~ ~ ~ ~ ~|~ O come and dine ~ ~|
 [F,C]>[F,C] [F,C][E,^C] [D,D][D,=C][D,B,][D,A,] | B,>B, DC B,2 [G,B,][G,B,] | %14
w: ~ ~ ~ ~ ~ ~ ~ ~|~ O come and dine * *|
 [C,C]>[C,G,] [C,A,][C,B,] [C,C]2 E,E, | [E,G,]>[E,G,] [E,^G,][E,G,] [F,A,]2 [F,C][F,A,] | %16
w: ||
 G,>[G,B,] [G,D][G,C] (B,A,)G,[G,B,] | [C,C]6 |] %18
w: ||
V:4
 x2 | x8 | x8 | x8 | x8 | x8 | x8 | x8 | x6 || x2 | x8 | C,6 x2 | x8 | G,6 x2 | x6 E,E, | x8 | %16
 x4 G,2 G, x | x6 |] %18

